!!!COM: Claude Goudimel
!!!OMD: Psalm 81: Chantez gayement
**kern	**kern	**kern	**kern
*part4	*part3	*part2	*part1
*staff4	*staff3	*staff2	*staff1
*clefF4	*clefGv2	*clefG2	*clefG2
*k[f#c#]	*k[f#c#]	*k[f#c#]	*k[f#c#]
!!LO:TX:omd:t=
*M4/4	*M4/4	*M4/4	*M4/4
=1	=1	=1	=1
2AA	2A	2e	2a
2D	2F#	2d	2a
=2	=2	=2	=2
4BB	4F#	4d	4b
4AA	4A	4e	4cc#
2D	2A	2f#	2dd
=3	=3	=3	=3
2D	2A	2f#	2dd
2AA	2A	2e	2cc#
=4	=4	=4	=4
4E	4G#X	4e	4b
4F#	2A	4c#	4a
2E	.	2e	2b
.	4G#X	.	.
=5	=5	=5	=5
2AA	2A	2e	2a
2r	2r	2r	2r
=6	=6	=6	=6
2AA	2c#	2e	2a
2D	2d	2f#	2a
=7	=7	=7	=7
4BB	4d	4f#	4b
4AA	4e	4a	4cc#
2D	2f#	2a	2dd
=8	=8	=8	=8
4D	4d	4f#	4a
4GG	4d	4g	4b
2D	2d	2f#	2a
=9	=9	=9	=9
2E	2B	2e	2g
2BB	2B	2d	2f#
=10	=10	=10	=10
2r	2r	2r	2r
4D	4d	4f#	4a
4GG	4d	4g	4b
=11	=11	=11	=11
2D	2d	2f#	2a
2E	2B	2e	2g
=12	=12	=12	=12
2BB	2B	2d	2f#
4BB	4F#	4d	4b
4D	4F#	4d	4a
=13	=13	=13	=13
4GG	4B	4d	4g
4D	4A	2d	4f#
2AA	2A	.	2e
.	.	4c#	.
=14	=14	=14	=14
1D	1A	1d	1d
==	==	==	==
*-	*-	*-	*-
!!!software: music21 v.9.7.1
!!!software: music21 v.8.3.0
!!!RDF**kern: > = above
!!!RDF**kern: < = below
